!!!COM: Palestrina, Giovanni Perluigi da
!!!OPR: In semidupl. maj. (I)
!!!OTL: Credo
**kern	**kern	**kern	**kern	**kern
*Ibass	*Itenor	*Itenor	*Icalto	*Icant
!Bassus	!Tenor 2	!Tenor 1	!Altus	!Cantus
*clefF4	*clefGv2	*clefGv2	*clefG2	*clefG2
*k[b-]	*k[b-]	*k[b-]	*k[b-]	*k[b-]
*F:ion	*F:ion	*F:ion	*F:ion	*F:ion
*M4/2	*M4/2	*M4/2	*M4/2	*M4/2
=1	=1	=1	=1	=1
0r	1F	0r	1f	1r
.	2A	.	1e	1cc
.	2A	.	.	.
=2	=2	=2	=2	=2
0r	1B-	0r	1d	1b-
.	2F	.	[1f	1a
.	[2F	.	.	.
=3	=3	=3	=3	=3
0r	4F]	0r	2f]	1.cc
.	4G	.	.	.
.	4A	.	2f	.
.	4B-	.	.	.
.	2c	.	1e	.
.	2A	.	.	2cc
=4	=4	=4	=4	=4
0r	1B-	0r	1d	1b-
.	1F	.	2c	1a
.	.	.	[2f	.
=5	=5	=5	=5	=5
1r	2.c	1r	2f]	1g
.	.	.	2e	.
.	4B-	.	.	.
2r	2A	1F	1f	1f
[2BB-	[2d	.	.	.
=6	=6	=6	=6	=6
2BB-]	2d]	2G	0r	0r
2C	2c	2A	.	.
2D	2F	2B-	.	.
2E	2G	[2c	.	.
=7	=7	=7	=7	=7
1F	1A	2c]	0r	0r
.	.	1d	.	.
2.E-	2.G	.	.	.
.	.	2c	.	.
4E-	4G	.	.	.
=8	=8	=8	=8	=8
1D	1A	2d	2r	1r
.	.	2A	2F	.
1r	2r	2B-	2G	2r
.	[2F	2A	[2A	2c
=9	=9	=9	=9	=9
0r	2F]	2D	2A]	2d
.	2G	2G	2B-	2e
.	2A	4F	2c	2f
.	.	4A	.	.
.	2B-	2G	2d	[2g
=10	=10	=10	=10	=10
0r	1c	1C	2.e	2g]
.	.	.	.	1a
.	.	.	8d	.
.	.	.	8c	.
.	2B-	1r	2d	.
.	2B-	.	2d	2g
=11	=11	=11	=11	=11
1r	1A	1F	2c	2.a
.	.	.	1f	.
.	.	.	.	4b-
1C	1r	2G	.	1cc
.	.	[2A	2e	.
=12	=12	=12	=12	=12
1D	1F	2A]	1f	0r
.	.	2B-	.	.
1E	1G	2c	1r	.
.	.	2c	.	.
=13	=13	=13	=13	=13
1.F	2A	2.c	1r	0r
.	4F	.	.	.
.	4G	4B-	.	.
.	4A	2A	1c	.
.	4B-	.	.	.
2E	2c	2G	.	.
=14	=14	=14	=14	=14
2D	2B-	1F	1d	1f
2D	2A	.	.	.
1C	1c	1r	1e	1g
=15	=15	=15	=15	=15
0r	0r	1F	2.f	1a
.	.	.	4e	.
.	.	1G	2d	[1b-
.	.	.	2B-	.
=16	=16	=16	=16	=16
1r	0r	2B-	4d	2b-]
.	.	.	4e	.
.	.	2F	1f	2a
1C	.	2.c	.	2g
.	.	.	2e	2g
.	.	4B-	.	.
=17	=17	=17	=17	=17
1D	1F	2A	1f	2f
.	.	2F	.	2a
1E	1G	1C	2r	2g
.	.	.	[2c	[2cc
=18	=18	=18	=18	=18
2.F	1A	2r	2c]	4cc]
.	.	.	.	4b-
.	.	1F	2c	4a
4E	.	.	.	4g
4D	[1B-	.	1d	4f
4C	.	.	.	4e
4BB-	.	2F	.	2d
4AA	.	.	.	.
=19	=19	=19	=19	=19
2GG	2B-]	2G	2B-	2d
2FF	2A	2A	1c	1f
2C	2G	2.c	.	.
2C	2G	.	2G	2e
.	.	4c	.	.
=20	=20	=20	=20	=20
[0FF	[0F	[0c	[0A	[0f
=21	=21	=21	=21	=21
0FF]	0F]	0c]	0A]	0f]
!! Et ex Patre
*Ibass	*Itenor	*Itenor	*Icalto	*Icant
!Bassus	!Tenor 2	!Tenor 1	!Altus	!Cantus
*clefF4	*clefGv2	*clefGv2	*clefG2	*clefG2
*k[b-]	*k[b-]	*k[b-]	*k[b-]	*k[b-]
*F:ion	*F:ion	*F:ion	*F:ion	*F:ion
*M4/2	*M4/2	*M4/2	*M4/2	*M4/2
=22	=22	=22	=22	=22
0r	0r	0r	0r	1f
.	.	.	.	1c
=23	=23	=23	=23	=23
0r	0r	0r	1B-	2f
.	.	.	.	2g
.	.	.	1F	1a
=24	=24	=24	=24	=24
0r	0r	0r	2B-	1g
.	.	.	2c	.
.	.	.	4d	2f
.	.	.	4c	.
.	.	.	4B-	[2b-
.	.	.	4c	.
=25	=25	=25	=25	=25
0r	1F	0r	4d	2b-]
.	.	.	4e	.
.	.	.	1f	2a
.	1C	.	.	1g
.	.	.	2e	.
=26	=26	=26	=26	=26
1BB-	2F	0r	1d	2f
.	2G	.	.	4d
.	.	.	.	4e
1FF	1A	.	1c	4f
.	.	.	.	4g
.	.	.	.	[2f
=27	=27	=27	=27	=27
2BB-	1G	1r	2d	2f]
2C	.	.	4c	2e
.	.	.	4B-	.
1D	4F	2r	1A	2d
.	4G	.	.	.
.	4A	2F	.	[2f
.	4B-	.	.	.
=28	=28	=28	=28	=28
1C	1c	1G	2r	2f]
.	.	.	2c	2e
2BB-	1r	1B-	1d	1f
[2BB-	.	.	.	.
=29	=29	=29	=29	=29
4BB-]	2r	2B-	1f	0r
4C	.	.	.	.
4D	2.F	2B-	.	.
4E	.	.	.	.
1F	.	1A	2f	.
.	4G	.	.	.
.	4A	.	2f	.
.	4B-	.	.	.
=30	=30	=30	=30	=30
1C	1c	1G	1e	0r
2D	2A	1F	1d	.
2BB-	[2B-	.	.	.
=31	=31	=31	=31	=31
2.F	2B-]	1r	2c	1f
.	2A	.	2f	.
8E	.	.	.	.
8D	.	.	.	.
4C	1c	2r	1e	1g
4D	.	.	.	.
4E	.	[2G	.	.
4F	.	.	.	.
=32	=32	=32	=32	=32
2G	2B-	4G]	1d	1b-
.	.	4A	.	.
2.GG	2B-	4B-	.	.
.	.	4c	.	.
.	1G	2d	[1d	2b-
4AA	.	.	.	.
4BB-	.	2D	.	2b-
4C	.	.	.	.
=33	=33	=33	=33	=33
4D	2r	2.F	2d]	1a
4E	.	.	.	.
1F	2F	.	2c	.
.	.	4F	.	.
.	1G	1C	1c	1g
2E	.	.	.	.
=34	=34	=34	=34	=34
4D	1B-	1F	0d	2f
4C	.	.	.	.
4BB-	.	.	.	2.b-
4AA	.	.	.	.
1GG	2B-	2.G	.	.
.	.	.	.	4a
.	2B-	.	.	[2g
.	.	4F	.	.
=35	=35	=35	=35	=35
2.AA	1A	4E	1c	4g]
.	.	4C	.	4f
.	.	1c	.	1f
4BB-	.	.	.	.
1C	2.G	.	1c	.
.	.	2G	.	2e
.	4G	.	.	.
=36	=36	=36	=36	=36
[0FF	[0F	[0A	[0c	[0f
=37	=37	=37	=37	=37
0FF]	0F]	0A]	0c]	0f]
!! Genitum
*Ibass	*Itenor	*Itenor	*Icalto	*Icant
!Bassus	!Tenor 2	!Tenor 1	!Altus	!Cantus
*clefF4	*clefGv2	*clefGv2	*clefG2	*clefG2
*k[b-]	*k[b-]	*k[b-]	*k[b-]	*k[b-]
*F:ion	*F:ion	*F:ion	*F:ion	*F:ion
*M4/2	*M4/2	*M4/2	*M4/2	*M4/2
=38	=38	=38	=38	=38
0r	0r	0r	1r	1.c
.	.	.	2r	.
.	.	.	[2G	2d
=39	=39	=39	=39	=39
0r	0r	0r	2G]	2e
.	.	.	2A	2f
.	.	.	2B-	1g
.	.	.	2c	.
=40	=40	=40	=40	=40
0r	0r	0r	1d	2f
.	.	.	.	2f
.	.	.	2c	2g
.	.	.	2c	2a
=41	=41	=41	=41	=41
1r	0r	0r	2d	2b-
.	.	.	2e	2cc
2r	.	.	2f	2a
[2BB-	.	.	[2d	[2b-
=42	=42	=42	=42	=42
2BB-]	0r	0r	2d]	2b-]
2C	.	.	2c	1a
2D	.	.	1B-	.
2E	.	.	.	2g
=43	=43	=43	=43	=43
1F	2r	1r	1A	1a
.	1c	.	.	.
1D	.	1F	1f	1r
.	2B-	.	.	.
=44	=44	=44	=44	=44
1C	4c	2G	1e	0r
.	4B-	.	.	.
.	4A	2A	.	.
.	4G	.	.	.
2D	2F	2B-	2d	.
2E	2G	2c	[2c	.
=45	=45	=45	=45	=45
2F	2A	2A	2c]	0r
1D	2.F	2.B-	1d	.
.	4D	4A	.	.
[2C	2E	[2A	2A	.
=46	=46	=46	=46	=46
2C]	1D	2A]	1d	0r
2BB-	.	2G	.	.
[1FF	[1F	[1A	2c	.
.	.	.	[2c	.
=47	=47	=47	=47	=47
0FF]	0F]	1A]	2c]	2r
.	.	.	2F	1f
.	.	2.A	2.c	.
.	.	.	.	2c
.	.	4A	4c	.
=48	=48	=48	=48	=48
0r	0r	2B-	2d	2.f
.	.	2d	1f	.
.	.	.	.	4f
.	.	1c	.	1g
.	.	.	2e	.
=49	=49	=49	=49	=49
0r	1F	2.A	4d	1a
.	.	.	4c	.
.	.	.	1f	.
.	.	4B-	.	.
.	1C	1c	.	1g
.	.	.	2e	.
=50	=50	=50	=50	=50
2r	2.F	0r	4f	1f
.	.	.	4e	.
1BB-	.	.	4d	.
.	4F	.	4c	.
.	2G	.	2B-	2d
2FF	2A	.	2c	2c
=51	=51	=51	=51	=51
2.BB-	4G	0r	1B-	2.d
.	4F	.	.	.
.	1F	.	.	.
4BB-	.	.	.	4d
1C	.	.	2.A	2c
.	2E	.	.	4cc
.	.	.	4G	4b-
=52	=52	=52	=52	=52
2.D	1F	2r	1F	4a
.	.	.	.	4g
.	.	1F	.	4f
4C	.	.	.	4e
2BB-	2r	.	2B-	2d
2AA	2F	2C	2c	2a
=53	=53	=53	=53	=53
1BB-	2D	2.F	2.d	1f
.	1d	.	.	.
.	.	4F	4c	.
1GG	.	1G	4B-	1b-
.	.	.	4c	.
.	2B-	.	4d	.
.	.	.	4e	.
=54	=54	=54	=54	=54
1FF	1c	1A	4f	2.a
.	.	.	4c	.
.	.	.	1f	.
.	.	.	.	4b-
1C	2.c	1G	.	1cc
.	.	.	2e	.
.	4c	.	.	.
=55	=55	=55	=55	=55
[0FF	[0c	[0F	[0f	[0a
=56	=56	=56	=56	=56
0FF]	0c]	0F]	0f]	0a]
!! Et incarnatus
*Ibass	*Itenor	*Itenor	*Icalto	*Icant
!Bassus	!Tenor 2	!Tenor 1	!Altus	!Cantus
*clefF4	*clefGv2	*clefGv2	*clefG2	*clefG2
*k[b-]	*k[b-]	*k[b-]	*k[b-]	*k[b-]
*F:ion	*F:ion	*F:ion	*F:ion	*F:ion
*M4/2	*M4/2	*M4/2	*M4/2	*M4/2
=57	=57	=57	=57	=57
1r	0c	0F	[0f	0a
[1F	.	.	.	.
=58	=58	=58	=58	=58
1F]	1A	0c	1f]	2.a
.	.	.	.	4b-
1C	1G	.	1e	1cc
=59	=59	=59	=59	=59
1F	1A	1c	1f	1a
[1BB-	[1F	[1B-	[1d	2.b-
.	.	.	.	4cc
=60	=60	=60	=60	=60
1BB-]	1F]	1B-]	1d]	1dd
1C	1c	1G	1e	[1cc
=61	=61	=61	=61	=61
0FF	0c	0A	0f	1cc]
.	.	.	.	1a
=62	=62	=62	=62	=62
1r	1r	1r	1r	1r
1BB-	1d	1F	1f	1b-
=63	=63	=63	=63	=63
1BB-	1d	1B-	1.f	2b-
.	.	.	.	2f
1FF	1c	1A	.	2.a
.	.	.	2f	.
.	.	.	.	4b-
=64	=64	=64	=64	=64
1C	0c	1G	2e	1cc
.	.	.	2.g	.
1AA	.	1A	.	[1cc
.	.	.	4f	.
.	.	.	[2f	.
=65	=65	=65	=65	=65
1C	1c	1G	2f]	1cc]
.	.	.	2e	.
[1FF	1c	[1F	[1f	1a
=66	=66	=66	=66	=66
1FF]	1A	1F]	1f]	1cc
1r	1B-	1r	[1f	1dd
=67	=67	=67	=67	=67
1F	1A	1c	1f]	1cc
1BB-	2.F	1d	1f	1b-
.	4G	.	.	.
=68	=68	=68	=68	=68
1FF	1A	1c	1f	1a
4GG	2r	1B-	[1d	1g
4AA	.	.	.	.
4BB-	4D	.	.	.
4C	4E	.	.	.
=69	=69	=69	=69	=69
4D	4F	1A	2d]	1f
4E	4G	.	.	.
2F	4A	.	4c	.
.	4B-	.	4d	.
2C	[1c	1G	4e	1r
.	.	.	4d	.
2C	.	.	4c	.
.	.	.	4B-	.
=70	=70	=70	=70	=70
1FF	2c]	1F	4A	1c
.	.	.	4B-	.
.	2A	.	1c	.
1r	1G	2r	.	1d
.	.	[2G	2B	.
=71	=71	=71	=71	=71
1C	0r	2G]	1c	1e
.	.	1A	.	.
1D	.	.	1F	1f
.	.	2B-	.	.
=72	=72	=72	=72	=72
1E	1C	2G	1c	1g
.	.	2c	.	.
1F	1D	1A	2r	2f
.	.	.	2F	[2a
=73	=73	=73	=73	=73
1C	1E	1c	1G	2a]
.	.	.	.	1g
1FF	1F	2c	1A	.
.	.	2A	.	[2f
=74	=74	=74	=74	=74
0C	0G	2G	1c	2f]
.	.	2.c	.	4e
.	.	.	.	4d
.	.	.	1c	1e
.	.	4B-	.	.
.	.	2G	.	.
=75	=75	=75	=75	=75
[0FF	[0F	[0A	[0c	[0f
=76	=76	=76	=76	=76
0FF]	0F]	0A]	0c]	0f]
*	*	*	*	*-
!! Et resurrexit
*Ibass	*Itenor	*Icalto	*Icant
!Bassus	!Tenor	!Altus	!Cantus
*clefF4	*clefGv2	*clefG2	*clefG2
*k[b-]	*k[b-]	*k[b-]	*k[b-]
*F:ion	*F:ion	*F:ion	*F:ion
*M4/2	*M4/2	*M4/2	*M4/2
=77	=77	=77	=77
1F	1r	0r	0r
2F	1c	.	.
2F	.	.	.
=78	=78	=78	=78
2E	2c	0r	0r
2C	2c	.	.
4D	2B-	.	.
4E	.	.	.
4F	2A	.	.
4D	.	.	.
=79	=79	=79	=79
2E	1c	0r	0r
2F	.	.	.
2G	2B-	.	.
[2F	2A	.	.
=80	=80	=80	=80
2F]	1G	1r	0r
2E	.	.	.
[1F	2.F	2r	.
.	.	2f	.
.	4G	.	.
=81	=81	=81	=81
1F]	0A	2f	1cc
.	.	2f	.
1r	.	2e	2cc
.	.	2c	2cc
=82	=82	=82	=82
0r	0r	4d	2b-
.	.	4e	.
.	.	4f	2a
.	.	4d	.
.	.	2e	1cc
.	.	2f	.
=83	=83	=83	=83
2r	0r	2g	2b-
2FF	.	1f	2a
1C	.	.	[1g
.	.	4e	.
.	.	4d	.
=84	=84	=84	=84
2C	0r	4e	1g]
.	.	4d	.
2C	.	4c	.
.	.	4B-	.
4D	.	1A	1f
4E	.	.	.
[2F	.	.	.
=85	=85	=85	=85
2F]	1C	1G	1g
4E	.	.	.
4D	.	.	.
4E	1G	1r	1r
4D	.	.	.
4C	.	.	.
4D	.	.	.
=86	=86	=86	=86
4E	2G	0r	1r
4F	.	.	.
2.G	2G	.	.
.	1A	.	1c
4F	.	.	.
[2F	.	.	.
=87	=87	=87	=87
2F]	1G	0r	1g
4E	.	.	.
4D	.	.	.
1E	1C	.	2g
.	.	.	2g
=88	=88	=88	=88
1D	2r	1F	1.a
.	1F	.	.
1C	.	1c	.
.	2E	.	2g
=89	=89	=89	=89
0r	2F	2c	2a
.	2A	2c	2.cc
.	1G	1d	.
.	.	.	4b-
.	.	.	2b-
=90	=90	=90	=90
1FF	1.A	1c	2a
.	.	.	4g
.	.	.	4f
1C	.	[1c	2e
.	4G	.	[2f
.	4F	.	.
=91	=91	=91	=91
2C	1G	1c]	4f]
.	.	.	8e
.	.	.	8d
2C	.	.	2e
1D	1F	2r	[1f
.	.	2F	.
=92	=92	=92	=92
1.C	2r	1c	2f]
.	2C	.	4e
.	.	.	4d
.	1G	2c	1e
4BB-	.	2c	.
4AA	.	.	.
=93	=93	=93	=93
1BB-	2G	1d	2d
.	2G	.	2.g
2.AA	1A	1c	.
.	.	.	4f
.	.	.	[2f
4BB-	.	.	.
=94	=94	=94	=94
0C	0G	0c	2f]
.	.	.	4e
.	.	.	4d
.	.	.	1e
=95	=95	=95	=95
[0FF	[0F	[0A	[0f
=96	=96	=96	=96
0FF]	0F]	0A]	0f]
!! Et iterum
*Itenor	*Itenor	*Icalto	*Icant
!Tenor 2	!Tenor 1	!Altus	!Cantus
*clefGv2	*clefGv2	*clefG2	*clefG2
*k[b-]	*k[b-]	*k[b-]	*k[b-]
*F:ion	*F:ion	*F:ion	*F:ion
*M4/2	*M4/2	*M4/2	*M4/2
=97	=97	=97	=97
1r	0r	1c	0r
1F	.	2.f	.
.	.	4e	.
=98	=98	=98	=98
2B-	0r	2d	1f
2A	.	2c	.
2G	.	4d	2b-
.	.	4e	.
2F	.	4f	2a
.	.	4d	.
=99	=99	=99	=99
2c	0r	2e	2g
2d	.	1f	2f
1c	.	.	2g
.	.	2e	2g
=100	=100	=100	=100
2r	1F	1f	1f
2c	.	.	.
2d	2B-	2r	2r
2c	2A	2c	2f
=101	=101	=101	=101
2B-	2G	2d	2g
2c	2F	1f	2a
2.B-	2G	.	[1b-
.	2G	2e	.
4c	.	.	.
=102	=102	=102	=102
2d	0F	1f	2b-]
4c	.	.	4a
4B-	.	.	4g
2c	.	2r	1a
2d	.	2F	.
=103	=103	=103	=103
1c	0r	2.A	2r
.	.	.	2f
.	.	4B-	.
1r	.	2c	2a
.	.	2d	2b-
=104	=104	=104	=104
0r	2r	2e	1.cc
.	2F	2f	.
.	2A	2c	.
.	2B-	2d	2f
=105	=105	=105	=105
0r	0c	2e	1a
.	.	1f	.
.	.	.	[1g
.	.	4e	.
.	.	4d	.
=106	=106	=106	=106
1r	2C	2e	1g]
.	2E	2c	.
2r	[1D	2d	2f
2F	.	2d	[2a
=107	=107	=107	=107
2A	1D]	2f	4a]
.	.	.	4g
2B-	.	2F	2f
[1c	[1C	1A	2e
.	.	.	[2f
=108	=108	=108	=108
1c]	1C]	1G	2f]
.	.	.	2e
2r	2c	1F	2a
2F	[2d	.	[2a
=109	=109	=109	=109
1A	2d]	2r	2a]
.	1c	2c	2f
1G	.	1d	1g
.	2B-	.	.
=110	=110	=110	=110
1F	1c	1f	2a
.	.	.	2cc
1F	2r	1f	2dd
.	2c	.	4cc
.	.	.	4b-
=111	=111	=111	=111
1F	2d	2r	1a
.	4c	2c	.
.	4B-	.	.
1F	1A	2c	1f
.	.	[2d	.
=112	=112	=112	=112
1E	1G	2d]	2g
.	.	1c	2g
1D	2A	.	1f
.	4G	2B	.
.	4F	.	.
=113	=113	=113	=113
2C	2G	1c	2.e
1c	2E	.	.
.	.	.	8f
.	.	.	8g
.	2.F	2r	1a
2c	.	[2f	.
.	4E	.	.
=114	=114	=114	=114
1B	1D	2f]	0r
.	.	2f	.
2c	1C	1e	.
2c	.	.	.
=115	=115	=115	=115
2A	0r	2f	1r
1B-	.	2f	.
.	.	2d	2r
2c	.	2e	[2cc
=116	=116	=116	=116
2F	0r	2f	2cc]
2A	.	2c	2cc
2G	.	1d	1b
2G	.	.	.
=117	=117	=117	=117
4c	0r	1e	2cc
4B-	.	.	.
4A	.	.	2cc
4G	.	.	.
2F	.	2f	2a
2G	.	2d	2b-
=118	=118	=118	=118
2.C	2r	0e	1cc
.	1c	.	.
4D	.	.	.
4E	.	.	1g
4D	.	.	.
4E	2c	.	.
4F	.	.	.
=119	=119	=119	=119
1G	1B	1d	2r
.	.	.	1g
1C	2c	1e	.
.	2c	.	2e
=120	=120	=120	=120
0r	2A	2c	2f
.	2B-	2d	2g
.	1c	2.e	2c
.	.	.	[2cc
.	.	8d	.
.	.	8c	.
=121	=121	=121	=121
1r	2G	1d	2cc]
.	2G	.	2b
2r	1A	1c	2cc
[2F	.	.	[2a
=122	=122	=122	=122
2F]	1c	2r	2a]
2F	.	2c	2a
1E	2C	2.c	1g
.	2c	.	.
.	.	4B-	.
=123	=123	=123	=123
0F	2.c	4A	2a
.	.	4G	.
.	.	1A	2cc
.	4B-	.	.
.	4A	.	2.cc
.	4G	.	.
.	[2A	2F	.
.	.	.	4b-
=124	=124	=124	=124
1F	2A]	1.f	4a
.	.	.	4g
.	2F	.	1a
2D	1B-	.	.
2E	.	4e	2g
.	.	4d	.
=125	=125	=125	=125
0F	2.A	1c	2.f
.	4B-	.	4g
.	1c	1f	1a
=126	=126	=126	=126
[0C	[0c	[0e	[0g
=127	=127	=127	=127
0C]	0c]	0e]	0g]
*-	*-	*-	*-
!! Qui cum Patre
**kern	**kern	**kern	**kern	**kern
*Ibass	*Itenor	*Itenor	*Icalto	*Icant
!Bassus	!Tenor 2	!Tenor 1	!Altus	!Cantus
*clefF4	*clefGv2	*clefGv2	*clefG2	*clefG2
*k[b-]	*k[b-]	*k[b-]	*k[b-]	*k[b-]
*F:ion	*F:ion	*F:ion	*F:ion	*F:ion
*M4/2	*M4/2	*M4/2	*M4/2	*M4/2
=128	=128	=128	=128	=128
1r	1F	0r	0r	0r
1C	1G	.	.	.
=129	=129	=129	=129	=129
1D	1B-	0r	0r	0r
1F	2.A	.	.	.
.	4B-	.	.	.
=130	=130	=130	=130	=130
2F	2c	0r	0r	1r
2F	1d	.	.	.
1E	.	.	.	2r
.	[2c	.	.	2c
=131	=131	=131	=131	=131
1D	2c]	1F	1r	2d
.	2B	.	.	1f
2C	1c	1G	2r	.
2C	.	.	2c	2e
=132	=132	=132	=132	=132
2BB-	1F	1B-	1d	2f
2BB-	.	.	.	4f
.	.	.	.	4g
1FF	2.F	2.A	1f	4a
.	.	.	.	4b-
.	.	.	.	[2cc
.	4G	4B-	.	.
=133	=133	=133	=133	=133
0r	2A	2c	2f	2cc]
.	2B-	1d	2f	4b-
.	.	.	.	4a
.	1c	.	1e	2g
.	.	[2c	.	2g
=134	=134	=134	=134	=134
1r	1G	2c]	1d	1g
.	.	2B	.	.
2r	2r	[1c	1c	1r
[2F	[2A	.	.	.
=135	=135	=135	=135	=135
2F]	2A]	0c]	0r	0r
2E	2G	.	.	.
2F	[1A	.	.	.
2C	.	.	.	.
=136	=136	=136	=136	=136
1D	2A]	0r	2r	1.a
.	2B-	.	1f	.
1C	1c	.	.	.
.	.	.	2e	2g
=137	=137	=137	=137	=137
0r	1F	1A	2f	1a
.	.	.	2c	.
.	1r	1G	1d	1b
=138	=138	=138	=138	=138
1F	0r	1.A	2c	1cc
.	.	.	1f	.
1D	.	.	.	2.f
.	.	2B-	2d	.
.	.	.	.	4g
=139	=139	=139	=139	=139
1C	0r	0c	2e	2a
.	.	.	1f	4g
.	.	.	.	4f
1C	.	.	.	1g
.	.	.	2e	.
=140	=140	=140	=140	=140
0r	2r	1F	2.f	1a
.	2c	.	.	.
.	.	.	4e	.
.	2B-	2r	2d	1r
.	2A	2c	2c	.
=141	=141	=141	=141	=141
2r	2G	2B-	0r	0r
2F	2F	2A	.	.
2E-	2G	2G	.	.
2D	[2A	2F	.	.
=142	=142	=142	=142	=142
2C	4A]	1G	0r	0r
.	4G	.	.	.
2BB-	1G	.	.	.
1C	.	1A	.	.
.	[2F	.	.	.
=143	=143	=143	=143	=143
1C	4F]	1G	2r	0r
.	8E	.	.	.
.	8D	.	.	.
.	2E	.	2g	.
1r	2F	1c	2f	.
.	2C	.	2e	.
=144	=144	=144	=144	=144
0r	0r	2B-	2d	2r
.	.	2A	2c	2cc
.	.	2G	1d	2b-
.	.	2F	.	2a
=145	=145	=145	=145	=145
0r	0r	2G	2e	2g
.	.	2A	1f	2f
.	.	2B-	.	1g
.	.	2c	2e	.
=146	=146	=146	=146	=146
2r	1c	1F	1f	0f
1F	.	.	.	.
.	2A	2r	1r	.
2D	2B-	2B-	.	.
=147	=147	=147	=147	=147
2E	2c	2G	0r	0r
2F	1d	2A	.	.
1G	.	1B	.	.
.	2G	.	.	.
=148	=148	=148	=148	=148
2C	2.A	2c	1r	0r
2D	.	2F	.	.
.	4B-	.	.	.
2E	4c	2G	2r	.
.	4B-	.	.	.
[2F	4A	[2A	2c	.
.	4G	.	.	.
=149	=149	=149	=149	=149
4F]	1F	4A]	2A	0r
4E	.	4G	.	.
2D	.	1F	2B-	.
1C	1G	.	1c	.
.	.	2E	.	.
=150	=150	=150	=150	=150
1BB-	1B-	2F	2.d	1f
.	.	1B-	.	.
.	.	.	4e	.
1r	1r	.	2f	2d
.	.	2G	2g	2e
=151	=151	=151	=151	=151
0r	0r	2A	2c	2f
.	.	2B-	2d	1g
.	.	4c	1e	.
.	.	4B-	.	.
.	.	4A	.	2c
.	.	4G	.	.
=152	=152	=152	=152	=152
1.BB-	0r	4F	1f	2.d
.	.	4E	.	.
.	.	2D	.	.
.	.	.	.	4e
.	.	2d	1B-	2f
2GG	.	2d	.	[2g
=153	=153	=153	=153	=153
2AA	1r	2c	2c	4g]
.	.	.	.	4f
2BB-	.	4B-	2d	1f
.	.	4A	.	.
1C	2r	1G	2.c	.
.	[2c	.	.	2e
.	.	.	4B-	.
=154	=154	=154	=154	=154
1FF	2c]	[0F	2A	0f
.	2A	.	2c	.
2BB-	2B-	.	2d	.
2AA	2c	.	2c	.
=155	=155	=155	=155	=155
2.BB-	2d	1F]	2B-	2r
.	1d	.	1B-	1f
4C	.	.	.	.
4D	.	2r	.	.
4E	.	.	.	.
2F	2c	[2F	2A	2f
=156	=156	=156	=156	=156
0BB-	0B-	2F]	1B-	2.d
.	.	2F	.	.
.	.	.	.	4e
.	.	2.D	1d	2f
.	.	.	.	2g
.	.	4E	.	.
=157	=157	=157	=157	=157
[0FF	[0A	[0F	[0c	[0a
=158	=158	=158	=158	=158
1FF_	1A_	1F_	1c_	1a_
1FF_	1A_	1F_	1c_	1a_
=159	=159	=159	=159	=159
0FF]	0A]	0F]	0c]	0a]
!! Confiteor
*Ibass	*Itenor	*Itenor	*Icalto	*Icant
!Bassus	!Tenor 2	!Tenor 1	!Altus	!Cantus
*clefF4	*clefGv2	*clefGv2	*clefG2	*clefG2
*k[b-]	*k[b-]	*k[b-]	*k[b-]	*k[b-]
*F:ion	*F:ion	*F:ion	*F:ion	*F:ion
*M4/2	*M4/2	*M4/2	*M4/2	*M4/2
=160	=160	=160	=160	=160
0r	1F	0r	1r	0r
.	2.A	.	1F	.
.	4B-	.	.	.
=161	=161	=161	=161	=161
0r	1c	0r	2.A	2r
.	.	.	.	2c
.	.	.	4B-	.
.	2r	.	2c	2.e
.	2c	.	2A	.
.	.	.	.	4f
=162	=162	=162	=162	=162
0r	2d	0r	2B-	2g
.	2c	.	2c	2e
.	1B-	.	1d	2.f
.	.	.	.	4g
=163	=163	=163	=163	=163
1FF	0A	1r	[0c	0a
2.AA	.	2r	.	.
.	.	2C	.	.
4BB-	.	.	.	.
=164	=164	=164	=164	=164
2C	2r	2E	1c]	2g
2AA	2c	2F	.	4f
.	.	.	.	4e
2BB-	2B-	2G	1r	2d
2C	2G	2E	.	[2g
=165	=165	=165	=165	=165
1D	4B-	2.F	1r	4g]
.	8A	.	.	4f
.	8G	.	.	.
.	4A	.	.	1f
.	4B-	4G	.	.
[1C	2c	1A	2r	.
.	2C	.	2c	4e
.	.	.	.	4d
=166	=166	=166	=166	=166
1C]	1r	1G	2c	1e
.	.	.	2c	.
1D	2r	1F	4A	1r
.	.	.	8B-	.
.	.	.	8c	.
.	[2A	.	2d	.
=167	=167	=167	=167	=167
2F	2A]	2A	1c	0r
2E	2c	2G	.	.
2D	2B-	2F	1r	.
[2C	2A	[2E	.	.
=168	=168	=168	=168	=168
2C]	1.G	2E]	0r	0r
2BB-	.	2D	.	.
2C	.	2E	.	.
2D	2F	2F	.	.
=169	=169	=169	=169	=169
0C	2G	2E	0r	0r
.	2A	2.F	.	.
.	1G	.	.	.
.	.	8E	.	.
.	.	8D	.	.
.	.	2E	.	.
=170	=170	=170	=170	=170
0FF	1F	0F	2r	2r
.	.	.	1f	1a
.	2.A	.	.	.
.	.	.	2c	2cc
.	4A	.	.	.
=171	=171	=171	=171	=171
0r	2G	0r	2d	2b-
.	2F	.	2f	2a
.	2c	.	2e	2g
.	2A	.	2c	2f
=172	=172	=172	=172	=172
0r	2B-	0r	2d	2g
.	2c	.	2c	2a
.	2B	.	2d	1g
.	2c	.	2e	.
=173	=173	=173	=173	=173
2r	2F	2r	1f	1f
1F	1c	1A	.	.
.	.	.	2.f	2.a
2F	2A	2c	.	.
.	.	.	4f	4a
=174	=174	=174	=174	=174
2BB-	2d	2B-	2f	2b-
2F	2c	2A	2f	2cc
2C	2c	2G	2e	2cc
2FF	2c	2F	2f	2a
=175	=175	=175	=175	=175
2C	2.c	2G	2e	2g
2FF	.	2A	1f	2f
.	4c	.	.	.
1C	1c	1G	.	1g
.	.	.	2e	.
=176	=176	=176	=176	=176
[0FF	[0c	[0F	[0f	[0a
=177	=177	=177	=177	=177
0FF]	0c]	0F]	0f]	0a]
!! Et vitam
*Ibass	*Itenor	*Itenor	*Icalto	*Icant
!Bassus	!Tenor 2	!Tenor 1	!Altus	!Cantus
*clefF4	*clefGv2	*clefGv2	*clefG2	*clefG2
*k[b-]	*k[b-]	*k[b-]	*k[b-]	*k[b-]
*F:ion	*F:ion	*F:ion	*F:ion	*F:ion
*M4/2	*M4/2	*M4/2	*M4/2	*M4/2
=178	=178	=178	=178	=178
0r	0r	0r	1r	1cc
.	.	.	1f	1a
=179	=179	=179	=179	=179
0r	1r	0r	1d	1b-
.	1c	.	1e-	1g
=180	=180	=180	=180	=180
0r	1A	0r	1c	0f
.	1B-	.	[1d	.
=181	=181	=181	=181	=181
0r	1G	0r	2d]	1b-
.	.	.	2e	.
.	1F	.	4f	1a
.	.	.	4d	.
.	.	.	[2f	.
=182	=182	=182	=182	=182
1r	1C	1c	2f]	1g
.	.	.	2e	.
1F	1c	1A	2f	[1f
.	.	.	4a	.
.	.	.	4g	.
=183	=183	=183	=183	=183
1D	2.d	1B-	4f	2f]
.	.	.	4e	.
.	.	.	1d	2f
.	4c	.	.	.
1E-	2B-	1G	.	1g
.	2G	.	2c	.
=184	=184	=184	=184	=184
1D	1A	1F	2d	2r
.	.	.	2f	1d
2.BB-	2.D	1B-	2.f	.
.	.	.	.	[2f
4C	4E	.	4e	.
=185	=185	=185	=185	=185
4D	1F	1A	2d	4f]
4E	.	.	.	4g
2.F	.	.	1c	4a
.	.	.	.	4b-
.	1C	1G	.	1cc
8E	.	.	.	.
8D	.	.	.	.
2E	.	.	2c	.
=186	=186	=186	=186	=186
1F	2r	1F	4A	2cc
.	.	.	4B-	.
.	2F	.	4c	2a
.	.	.	4d	.
1C	2E	1G	4e	2g
.	.	.	4f	.
.	2C	.	2g	2cc
=187	=187	=187	=187	=187
1AA	1E	0A	0c	2.cc
.	.	.	.	4b-
1FF	2F	.	.	4a
.	.	.	.	4g
.	2F	.	.	[2f
=188	=188	=188	=188	=188
1.C	1G	1.G	1.c	2f]
.	.	.	.	4e
.	.	.	.	4d
.	1C	.	.	2e
2C	.	2G	2c	2e
=189	=189	=189	=189	=189
[0FF	[0C	[0F	[0A	[0f
=190	=190	=190	=190	=190
0FF]	0C]	0F]	0A]	0f]
=191	=191	=191	=191	=191
0r	0r	1B-	0r	0r
.	.	1G	.	.
=192	=192	=192	=192	=192
0r	0r	1F	0r	1f
.	.	2G	.	1d
.	.	[2B-	.	.
=193	=193	=193	=193	=193
1F	0r	4B-]	0r	1c
.	.	4A	.	.
.	.	2A	.	.
1D	.	4B-	.	2d
.	.	4A	.	.
.	.	4A	.	[2f
.	.	8G	.	.
.	.	8F	.	.
=194	=194	=194	=194	=194
1C	0r	1G	1c	2f]
.	.	.	.	2e
2D	.	1F	1A	1f
[2F	.	.	.	.
=195	=195	=195	=195	=195
4F]	1r	2C	1G	1g
8E	.	.	.	.
8D	.	.	.	.
2E	.	2.c	.	.
2F	1F	.	2A	1c
.	.	4B-	.	.
2FF	.	[2A	[2c	.
=196	=196	=196	=196	=196
1GG	1D	4A]	4c]	2.g
.	.	4G	8B-	.
.	.	.	8A	.
.	.	1G	2B-	.
.	.	.	.	4f
1AA	1C	.	2c	4e
.	.	.	.	4c
.	.	2F	2A	[2cc
=197	=197	=197	=197	=197
2.GG	0D	4G	2r	2cc]
.	.	4A	.	.
.	.	4B-	2d	2.b-
4AA	.	4c	.	.
1BB-	.	1d	4B-	.
.	.	.	4c	4a
.	.	.	4d	2f
.	.	.	4B-	.
=198	=198	=198	=198	=198
0FF	0F	2.A	4c	0a
.	.	.	4B-	.
.	.	.	4A	.
.	.	4B-	4G	.
.	.	[1c	2F	.
.	.	.	[2f	.
=199	=199	=199	=199	=199
0C	0G	0c]	2f]	1g
.	.	.	4e	.
.	.	.	4d	.
.	.	.	1e	1cc
=200	=200	=200	=200	=200
[0FF	[0F	[0c	[0f	[0a
=201	=201	=201	=201	=201
0FF]	0F]	0c]	0f]	0a]
==	==	==	==	==
*-	*-	*-	*-	*-
!!!CDT: 1525/^1526/-1594/2/2
!!!OCY: Italia
!!!AGN: Mass (Paraphrase)
!!!AST: renaissance, vocal
!!!ASW: Gregorian Mass
!!!PWK: Masses, Book Mantuan II
!!!RNB: Cadence finals: C
!!!YOR: Le Opere Complete, v. 19, p. 129
!!!YOO: Rome, Italy: Fratelli Scalera
!!!END: 1992//
!!!EED: John Miller
!!!YEC: Copyright 2000, John Miller
!!!YEN: United States of America
!!!YEM: Rights to all derivative electronic formats reserved.
!!!YEM: Refer to licensing agreement for further details.
!!!YEM: This file must be accompanied by the licensing agreement.
!!!YEM: A copy of the licensing agreement may be found at http://www.music-cog.ohio-state.edu/HumdrumDatabases/Palestrina/license.txt
!!!EMD: converted to Humdrum by Bret Aarden
